assets/images/detailsIcon.svg

<svg width="24" height="25" viewBox="0 0 24 25" fill="none" xmlns="http://www.w3.org/2000/svg">
<path d="M12 4.25C9.72183 4.25 7.77728 5.05546 6.16637 6.66637C4.55546 8.27728 3.75 10.2218 3.75 12.5C3.75 14.7782 4.55546 16.7227 6.16637 18.3336C7.77728 19.9445 9.72183 20.75 12 20.75C14.2782 20.75 16.2227 19.9445 17.8336 18.3336C19.4445 16.7227 20.25 14.7782 20.25 12.5C20.25 10.2218 19.4445 8.27728 17.8336 6.66637C16.2227 5.05546 14.2782 4.25 12 4.25Z" stroke="#1F2937" stroke-width="1.5"/>
<path d="M9.375 9.98245C9.375 9.98245 9.41437 9.16214 10.2923 8.45574C10.8131 8.03621 11.4375 7.9148 12 7.90636C12.5123 7.8998 12.9698 7.98464 13.2436 8.11495C13.7123 8.33808 14.625 8.88277 14.625 10.041C14.625 11.2598 13.8281 11.8134 12.9202 12.4223C12.0122 13.0312 11.7656 13.6921 11.7656 14.3751" stroke="#1F2937" stroke-width="1.3125" stroke-linecap="round"/>
<circle cx="11.7188" cy="16.8125" r="0.9375" fill="#1F2937"/>
</svg>

<svg xmlns="http://www.w3.org/2000/svg" width="24" height="25" fill="none"><path stroke="#1F2937" stroke-width="1.5" d="M12 4.25q-3.417 0-5.834 2.416T3.75 12.5t2.416 5.834Q8.583 20.749 12 20.75t5.834-2.416q2.415-2.417 2.416-5.834t-2.416-5.834Q15.417 4.251 12 4.25Z"/><path stroke="#1F2937" stroke-linecap="round" stroke-width="1.313" d="M9.375 9.982s.04-.82.917-1.526c.521-.42 1.146-.541 1.708-.55.512-.006.97.079 1.244.209.468.223 1.381.768 1.381 1.926 0 1.219-.797 1.772-1.705 2.381-.908.61-1.154 1.27-1.154 1.953"/><circle cx="11.719" cy="16.813" r=".938" fill="#1F2937"/></svg>
